report_00007_2020-12-11T15:55:29.892Z/total-byte-weight/comparison/sorted/6_vs_7.svg

<svg width="640" height="500" xmlns="http://www.w3.org/2000/svg" xmlns:xlink="http://www.w3.org/1999/xlink"><path fill="#fff" d="M0 0h640v500H0z"/><defs><path id="d" stroke-width=".222" stroke="currentColor" d="M-1-1h2v2h-2z"/><path id="b" stroke-width=".222" stroke="currentColor" d="M0-1.33l-1.33 2h2.66z"/><path id="f" stroke-width=".222" stroke="currentColor" d="M0 1.33L1.265.411.782-1.067l-1.564-.009-.483 1.487z"/><use xlink:href="#b" id="c" stroke="currentColor" transform="rotate(180)"/><use xlink:href="#d" id="e" stroke="currentColor" transform="rotate(45)"/><circle id="a" stroke-width=".222" stroke="currentColor" cx="0" cy="0" r="1"/></defs><g fill="none" color="#000" stroke="currentColor"><path stroke="#000" d="M87.1 318.6h9m518.9 0h-9"/><text transform="translate(78.8 322.5)" stroke="none" fill="#000" font-family="Arial" font-size="12" text-anchor="end"><tspan>6.4x10</tspan><tspan font-size="9.6" dy="-6">6</tspan></text></g><g fill="none" color="#000" stroke="currentColor"><path stroke="#000" d="M87.1 242.1h9m518.9 0h-9"/><text transform="translate(78.8 246)" stroke="none" fill="#000" font-family="Arial" font-size="12" text-anchor="end"><tspan>6.45x10</tspan><tspan font-size="9.6" dy="-6">6</tspan></text></g><g fill="none" color="#000" stroke="currentColor"><path stroke="#000" d="M87.1 165.5h9m518.9 0h-9"/><text transform="translate(78.8 169.4)" stroke="none" fill="#000" font-family="Arial" font-size="12" text-anchor="end"><tspan>6.5x10</tspan><tspan font-size="9.6" dy="-6">6</tspan></text></g><g fill="none" color="#000" stroke="currentColor"><path stroke="#000" d="M87.1 89h9M615 89h-9"/><text transform="translate(78.8 92.9)" stroke="none" fill="#000" font-family="Arial" font-size="12" text-anchor="end"><tspan>6.55x10</tspan><tspan font-size="9.6" dy="-6">6</tspan></text></g><g fill="none" color="#000" stroke="currentColor"><path stroke="#000" d="M87.1 392v-9m0-364.9v9"/><text transform="translate(87.1 413.9)" stroke="none" fill="#000" font-family="Arial" font-size="12" text-anchor="middle"><tspan>0</tspan></text></g><g fill="none" color="#000" stroke="currentColor"><path stroke="#000" d="M140.4 392v-9m0-364.9v9"/><text transform="translate(140.4 413.9)" stroke="none" fill="#000" font-family="Arial" font-size="12" text-anchor="middle"><tspan>10</tspan></text></g><g fill="none" color="#000" stroke="currentColor"><path stroke="#000" d="M193.7 392v-9m0-364.9v9"/><text transform="translate(193.7 413.9)" stroke="none" fill="#000" font-family="Arial" font-size="12" text-anchor="middle"><tspan>20</tspan></text></g><g fill="none" color="#000" stroke="currentColor"><path stroke="#000" d="M247.1 392v-9m0-364.9v9"/><text transform="translate(247.1 413.9)" stroke="none" fill="#000" font-family="Arial" font-size="12" text-anchor="middle"><tspan>30</tspan></text></g><g fill="none" color="#000" stroke="currentColor"><path stroke="#000" d="M300.4 392v-9m0-364.9v9"/><text transform="translate(300.4 413.9)" stroke="none" fill="#000" font-family="Arial" font-size="12" text-anchor="middle"><tspan>40</tspan></text></g><g fill="none" color="#000" stroke="currentColor"><path stroke="#000" d="M353.7 392v-9m0-364.9v9"/><text transform="translate(353.7 413.9)" stroke="none" fill="#000" font-family="Arial" font-size="12" text-anchor="middle"><tspan>50</tspan></text></g><g fill="none" color="#000" stroke="currentColor"><path stroke="#000" d="M407 392v-9m0-364.9v9"/><text transform="translate(407 413.9)" stroke="none" fill="#000" font-family="Arial" font-size="12" text-anchor="middle"><tspan>60</tspan></text></g><g fill="none" color="#000" stroke="currentColor"><path stroke="#000" d="M460.4 392v-9m0-364.9v9"/><text transform="translate(460.4 413.9)" stroke="none" fill="#000" font-family="Arial" font-size="12" text-anchor="middle"><tspan>70</tspan></text></g><g fill="none" color="#000" stroke="currentColor"><path stroke="#000" d="M513.7 392v-9m0-364.9v9"/><text transform="translate(513.7 413.9)" stroke="none" fill="#000" font-family="Arial" font-size="12" text-anchor="middle"><tspan>80</tspan></text></g><g fill="none" color="#000" stroke="currentColor"><path stroke="#000" d="M567 392v-9m0-364.9v9"/><text transform="translate(567 413.9)" stroke="none" fill="#000" font-family="Arial" font-size="12" text-anchor="middle"><tspan>90</tspan></text></g><path stroke="#000" d="M87.1 18.1V392H615V18.1H87.1z" fill="none" color="#000"/><text transform="translate(450.3 431.9)" stroke="none" fill="#000" font-family="Arial" font-size="12" text-anchor="end" color="#000"><tspan>pages+cached+noexternal+nofonts</tspan></text><path stroke="#9400D3" d="M458.6 428h42.2M87.1 384.8H615" fill="none" color="#000"/><text transform="translate(450.3 449.9)" stroke="none" fill="#000" font-family="Arial" font-size="12" text-anchor="end" color="#000"><tspan>pages+cached+noexternal+nosvg</tspan></text><path stroke="#009E73" d="M458.6 446h42.2M87.1 25.4h16l5.3-.1H615" fill="none" color="#000"/><text transform="translate(450.3 467.9)" stroke="none" fill="#000" font-family="Arial" font-size="12" text-anchor="end" color="#000"><tspan>score p10=2731008</tspan></text><path stroke="#56B4E9" d="M458.6 464h42.2" fill="none" color="#000"/><g><text transform="translate(450.3 485.9)" stroke="none" fill="#000" font-family="Arial" font-size="12" text-anchor="end" color="#000"><tspan>score median=4096000</tspan></text><path stroke="#E69F00" d="M458.6 482h42.2" fill="none" color="#000"/></g><g fill="none" color="#000" stroke="currentColor"><path stroke="#000" d="M87.1 18.1V392H615V18.1H87.1z"/></g></svg>

<?xml version="1.0" encoding="utf-8"  standalone="no"?>
<svg 
 width="640" height="500"
 viewBox="0 0 640 500"
 xmlns="http://www.w3.org/2000/svg"
 xmlns:xlink="http://www.w3.org/1999/xlink"
>

<title>Gnuplot</title>
<desc>Produced by GNUPLOT 5.4 patchlevel 0 </desc>

<g id="gnuplot_canvas">

<rect x="0" y="0" width="640" height="500" fill="#ffffff"/>
<defs>

	<circle id='gpDot' r='0.5' stroke-width='0.5' stroke='currentColor'/>
	<path id='gpPt0' stroke-width='0.222' stroke='currentColor' d='M-1,0 h2 M0,-1 v2'/>
	<path id='gpPt1' stroke-width='0.222' stroke='currentColor' d='M-1,-1 L1,1 M1,-1 L-1,1'/>
	<path id='gpPt2' stroke-width='0.222' stroke='currentColor' d='M-1,0 L1,0 M0,-1 L0,1 M-1,-1 L1,1 M-1,1 L1,-1'/>
	<rect id='gpPt3' stroke-width='0.222' stroke='currentColor' x='-1' y='-1' width='2' height='2'/>
	<rect id='gpPt4' stroke-width='0.222' stroke='currentColor' fill='currentColor' x='-1' y='-1' width='2' height='2'/>
	<circle id='gpPt5' stroke-width='0.222' stroke='currentColor' cx='0' cy='0' r='1'/>
	<use xlink:href='#gpPt5' id='gpPt6' fill='currentColor' stroke='none'/>
	<path id='gpPt7' stroke-width='0.222' stroke='currentColor' d='M0,-1.33 L-1.33,0.67 L1.33,0.67 z'/>
	<use xlink:href='#gpPt7' id='gpPt8' fill='currentColor' stroke='none'/>
	<use xlink:href='#gpPt7' id='gpPt9' stroke='currentColor' transform='rotate(180)'/>
	<use xlink:href='#gpPt9' id='gpPt10' fill='currentColor' stroke='none'/>
	<use xlink:href='#gpPt3' id='gpPt11' stroke='currentColor' transform='rotate(45)'/>
	<use xlink:href='#gpPt11' id='gpPt12' fill='currentColor' stroke='none'/>
	<path id='gpPt13' stroke-width='0.222' stroke='currentColor' d='M0,1.330 L1.265,0.411 L0.782,-1.067 L-0.782,-1.076 L-1.265,0.411 z'/>
	<use xlink:href='#gpPt13' id='gpPt14' fill='currentColor' stroke='none'/>
	<filter id='textbox' filterUnits='objectBoundingBox' x='0' y='0' height='1' width='1'>
	  <feFlood flood-color='#FFFFFF' flood-opacity='1' result='bgnd'/>
	  <feComposite in='SourceGraphic' in2='bgnd' operator='atop'/>
	</filter>
	<filter id='greybox' filterUnits='objectBoundingBox' x='0' y='0' height='1' width='1'>
	  <feFlood flood-color='lightgrey' flood-opacity='1' result='grey'/>
	  <feComposite in='SourceGraphic' in2='grey' operator='atop'/>
	</filter>
</defs>
<g fill="none" color="#FFFFFF" stroke="black" stroke-width="1.00" stroke-linecap="butt" stroke-linejoin="miter">
</g>
<g fill="none" color="black" stroke="currentColor" stroke-width="1.00" stroke-linecap="butt" stroke-linejoin="miter">
	<path stroke='black'  d='M87.1,318.6 L96.1,318.6 M615.0,318.6 L606.0,318.6  '/>	<g transform="translate(78.8,322.5)" stroke="none" fill="black" font-family="Arial" font-size="12.00"  text-anchor="end">
		<text><tspan font-family="Arial" > 6.4x10</tspan><tspan font-family="Arial"  font-size="9.6" dy="-6.00px">6</tspan><tspan font-size="12.0" dy="6.00"></tspan></text>
	</g>
</g>
<g fill="none" color="black" stroke="currentColor" stroke-width="1.00" stroke-linecap="butt" stroke-linejoin="miter">
	<path stroke='black'  d='M87.1,242.1 L96.1,242.1 M615.0,242.1 L606.0,242.1  '/>	<g transform="translate(78.8,246.0)" stroke="none" fill="black" font-family="Arial" font-size="12.00"  text-anchor="end">
		<text><tspan font-family="Arial" > 6.45x10</tspan><tspan font-family="Arial"  font-size="9.6" dy="-6.00px">6</tspan><tspan font-size="12.0" dy="6.00"></tspan></text>
	</g>
</g>
<g fill="none" color="black" stroke="currentColor" stroke-width="1.00" stroke-linecap="butt" stroke-linejoin="miter">
	<path stroke='black'  d='M87.1,165.5 L96.1,165.5 M615.0,165.5 L606.0,165.5  '/>	<g transform="translate(78.8,169.4)" stroke="none" fill="black" font-family="Arial" font-size="12.00"  text-anchor="end">
		<text><tspan font-family="Arial" > 6.5x10</tspan><tspan font-family="Arial"  font-size="9.6" dy="-6.00px">6</tspan><tspan font-size="12.0" dy="6.00"></tspan></text>
	</g>
</g>
<g fill="none" color="black" stroke="currentColor" stroke-width="1.00" stroke-linecap="butt" stroke-linejoin="miter">
	<path stroke='black'  d='M87.1,89.0 L96.1,89.0 M615.0,89.0 L606.0,89.0  '/>	<g transform="translate(78.8,92.9)" stroke="none" fill="black" font-family="Arial" font-size="12.00"  text-anchor="end">
		<text><tspan font-family="Arial" > 6.55x10</tspan><tspan font-family="Arial"  font-size="9.6" dy="-6.00px">6</tspan><tspan font-size="12.0" dy="6.00"></tspan></text>
	</g>
</g>
<g fill="none" color="black" stroke="currentColor" stroke-width="1.00" stroke-linecap="butt" stroke-linejoin="miter">
	<path stroke='black'  d='M87.1,392.0 L87.1,383.0 M87.1,18.1 L87.1,27.1  '/>	<g transform="translate(87.1,413.9)" stroke="none" fill="black" font-family="Arial" font-size="12.00"  text-anchor="middle">
		<text><tspan font-family="Arial" > 0</tspan></text>
	</g>
</g>
<g fill="none" color="black" stroke="currentColor" stroke-width="1.00" stroke-linecap="butt" stroke-linejoin="miter">
	<path stroke='black'  d='M140.4,392.0 L140.4,383.0 M140.4,18.1 L140.4,27.1  '/>	<g transform="translate(140.4,413.9)" stroke="none" fill="black" font-family="Arial" font-size="12.00"  text-anchor="middle">
		<text><tspan font-family="Arial" > 10</tspan></text>
	</g>
</g>
<g fill="none" color="black" stroke="currentColor" stroke-width="1.00" stroke-linecap="butt" stroke-linejoin="miter">
	<path stroke='black'  d='M193.7,392.0 L193.7,383.0 M193.7,18.1 L193.7,27.1  '/>	<g transform="translate(193.7,413.9)" stroke="none" fill="black" font-family="Arial" font-size="12.00"  text-anchor="middle">
		<text><tspan font-family="Arial" > 20</tspan></text>
	</g>
</g>
<g fill="none" color="black" stroke="currentColor" stroke-width="1.00" stroke-linecap="butt" stroke-linejoin="miter">
	<path stroke='black'  d='M247.1,392.0 L247.1,383.0 M247.1,18.1 L247.1,27.1  '/>	<g transform="translate(247.1,413.9)" stroke="none" fill="black" font-family="Arial" font-size="12.00"  text-anchor="middle">
		<text><tspan font-family="Arial" > 30</tspan></text>
	</g>
</g>
<g fill="none" color="black" stroke="currentColor" stroke-width="1.00" stroke-linecap="butt" stroke-linejoin="miter">
	<path stroke='black'  d='M300.4,392.0 L300.4,383.0 M300.4,18.1 L300.4,27.1  '/>	<g transform="translate(300.4,413.9)" stroke="none" fill="black" font-family="Arial" font-size="12.00"  text-anchor="middle">
		<text><tspan font-family="Arial" > 40</tspan></text>
	</g>
</g>
<g fill="none" color="black" stroke="currentColor" stroke-width="1.00" stroke-linecap="butt" stroke-linejoin="miter">
	<path stroke='black'  d='M353.7,392.0 L353.7,383.0 M353.7,18.1 L353.7,27.1  '/>	<g transform="translate(353.7,413.9)" stroke="none" fill="black" font-family="Arial" font-size="12.00"  text-anchor="middle">
		<text><tspan font-family="Arial" > 50</tspan></text>
	</g>
</g>
<g fill="none" color="black" stroke="currentColor" stroke-width="1.00" stroke-linecap="butt" stroke-linejoin="miter">
	<path stroke='black'  d='M407.0,392.0 L407.0,383.0 M407.0,18.1 L407.0,27.1  '/>	<g transform="translate(407.0,413.9)" stroke="none" fill="black" font-family="Arial" font-size="12.00"  text-anchor="middle">
		<text><tspan font-family="Arial" > 60</tspan></text>
	</g>
</g>
<g fill="none" color="black" stroke="currentColor" stroke-width="1.00" stroke-linecap="butt" stroke-linejoin="miter">
	<path stroke='black'  d='M460.4,392.0 L460.4,383.0 M460.4,18.1 L460.4,27.1  '/>	<g transform="translate(460.4,413.9)" stroke="none" fill="black" font-family="Arial" font-size="12.00"  text-anchor="middle">
		<text><tspan font-family="Arial" > 70</tspan></text>
	</g>
</g>
<g fill="none" color="black" stroke="currentColor" stroke-width="1.00" stroke-linecap="butt" stroke-linejoin="miter">
	<path stroke='black'  d='M513.7,392.0 L513.7,383.0 M513.7,18.1 L513.7,27.1  '/>	<g transform="translate(513.7,413.9)" stroke="none" fill="black" font-family="Arial" font-size="12.00"  text-anchor="middle">
		<text><tspan font-family="Arial" > 80</tspan></text>
	</g>
</g>
<g fill="none" color="black" stroke="currentColor" stroke-width="1.00" stroke-linecap="butt" stroke-linejoin="miter">
	<path stroke='black'  d='M567.0,392.0 L567.0,383.0 M567.0,18.1 L567.0,27.1  '/>	<g transform="translate(567.0,413.9)" stroke="none" fill="black" font-family="Arial" font-size="12.00"  text-anchor="middle">
		<text><tspan font-family="Arial" > 90</tspan></text>
	</g>
</g>
<g fill="none" color="black" stroke="currentColor" stroke-width="1.00" stroke-linecap="butt" stroke-linejoin="miter">
</g>
<g fill="none" color="black" stroke="currentColor" stroke-width="1.00" stroke-linecap="butt" stroke-linejoin="miter">
	<path stroke='black'  d='M87.1,18.1 L87.1,392.0 L615.0,392.0 L615.0,18.1 L87.1,18.1 Z  '/></g>
<g fill="none" color="black" stroke="currentColor" stroke-width="1.00" stroke-linecap="butt" stroke-linejoin="miter">
</g>
	<g id="gnuplot_plot_1" ><title>pages+cached+noexternal+nofonts</title>
<g fill="none" color="black" stroke="currentColor" stroke-width="1.00" stroke-linecap="butt" stroke-linejoin="miter">
	<g transform="translate(450.3,431.9)" stroke="none" fill="black" font-family="Arial" font-size="12.00"  text-anchor="end">
		<text><tspan font-family="Arial" >pages+cached+noexternal+nofonts</tspan></text>
	</g>
</g>
<g fill="none" color="black" stroke="currentColor" stroke-width="1.00" stroke-linecap="butt" stroke-linejoin="miter">
	<path stroke='rgb(148,   0, 211)'  d='M458.6,428.0 L500.8,428.0 M87.1,384.8 L92.4,384.8 L97.8,384.8 L103.1,384.8 L108.4,384.8 L113.8,384.8
		L119.1,384.8 L124.4,384.8 L129.8,384.8 L135.1,384.8 L140.4,384.8 L145.8,384.8 L151.1,384.8 L156.4,384.8
		L161.8,384.8 L167.1,384.8 L172.4,384.8 L177.7,384.8 L183.1,384.8 L188.4,384.8 L193.7,384.8 L199.1,384.8
		L204.4,384.8 L209.7,384.8 L215.1,384.8 L220.4,384.8 L225.7,384.8 L231.1,384.8 L236.4,384.8 L241.7,384.8
		L247.1,384.8 L252.4,384.8 L257.7,384.8 L263.1,384.8 L268.4,384.8 L273.7,384.8 L279.1,384.8 L284.4,384.8
		L289.7,384.8 L295.1,384.8 L300.4,384.8 L305.7,384.8 L311.1,384.8 L316.4,384.8 L321.7,384.8 L327.1,384.8
		L332.4,384.8 L337.7,384.8 L343.1,384.8 L348.4,384.8 L353.7,384.8 L359.0,384.8 L364.4,384.8 L369.7,384.8
		L375.0,384.8 L380.4,384.8 L385.7,384.8 L391.0,384.8 L396.4,384.8 L401.7,384.8 L407.0,384.8 L412.4,384.8
		L417.7,384.8 L423.0,384.8 L428.4,384.8 L433.7,384.8 L439.0,384.8 L444.4,384.8 L449.7,384.8 L455.0,384.8
		L460.4,384.8 L465.7,384.8 L471.0,384.8 L476.4,384.8 L481.7,384.8 L487.0,384.8 L492.4,384.8 L497.7,384.8
		L503.0,384.8 L508.4,384.8 L513.7,384.8 L519.0,384.8 L524.4,384.8 L529.7,384.8 L535.0,384.8 L540.3,384.8
		L545.7,384.8 L551.0,384.8 L556.3,384.8 L561.7,384.8 L567.0,384.8 L572.3,384.8 L577.7,384.8 L583.0,384.8
		L588.3,384.8 L593.7,384.8 L599.0,384.8 L604.3,384.8 L609.7,384.8 L615.0,384.8  '/></g>
	</g>
	<g id="gnuplot_plot_2" ><title>pages+cached+noexternal+nosvg</title>
<g fill="none" color="black" stroke="currentColor" stroke-width="1.00" stroke-linecap="butt" stroke-linejoin="miter">
	<g transform="translate(450.3,449.9)" stroke="none" fill="black" font-family="Arial" font-size="12.00"  text-anchor="end">
		<text><tspan font-family="Arial" >pages+cached+noexternal+nosvg</tspan></text>
	</g>
</g>
<g fill="none" color="black" stroke="currentColor" stroke-width="1.00" stroke-linecap="butt" stroke-linejoin="miter">
	<path stroke='rgb(  0, 158, 115)'  d='M458.6,446.0 L500.8,446.0 M87.1,25.4 L92.4,25.4 L97.8,25.4 L103.1,25.4 L108.4,25.3 L113.8,25.3
		L119.1,25.3 L124.4,25.3 L129.8,25.3 L135.1,25.3 L140.4,25.3 L145.8,25.3 L151.1,25.3 L156.4,25.3
		L161.8,25.3 L167.1,25.3 L172.4,25.3 L177.7,25.3 L183.1,25.3 L188.4,25.3 L193.7,25.3 L199.1,25.3
		L204.4,25.3 L209.7,25.3 L215.1,25.3 L220.4,25.3 L225.7,25.3 L231.1,25.3 L236.4,25.3 L241.7,25.3
		L247.1,25.3 L252.4,25.3 L257.7,25.3 L263.1,25.3 L268.4,25.3 L273.7,25.3 L279.1,25.3 L284.4,25.3
		L289.7,25.3 L295.1,25.3 L300.4,25.3 L305.7,25.3 L311.1,25.3 L316.4,25.3 L321.7,25.3 L327.1,25.3
		L332.4,25.3 L337.7,25.3 L343.1,25.3 L348.4,25.3 L353.7,25.3 L359.0,25.3 L364.4,25.3 L369.7,25.3
		L375.0,25.3 L380.4,25.3 L385.7,25.3 L391.0,25.3 L396.4,25.3 L401.7,25.3 L407.0,25.3 L412.4,25.3
		L417.7,25.3 L423.0,25.3 L428.4,25.3 L433.7,25.3 L439.0,25.3 L444.4,25.3 L449.7,25.3 L455.0,25.3
		L460.4,25.3 L465.7,25.3 L471.0,25.3 L476.4,25.3 L481.7,25.3 L487.0,25.3 L492.4,25.3 L497.7,25.3
		L503.0,25.3 L508.4,25.3 L513.7,25.3 L519.0,25.3 L524.4,25.3 L529.7,25.3 L535.0,25.3 L540.3,25.3
		L545.7,25.3 L551.0,25.3 L556.3,25.3 L561.7,25.3 L567.0,25.3 L572.3,25.3 L577.7,25.3 L583.0,25.3
		L588.3,25.3 L593.7,25.3 L599.0,25.3 L604.3,25.3 L609.7,25.3 L615.0,25.3  '/></g>
	</g>
	<g id="gnuplot_plot_3" ><title>score p10=2731008</title>
<g fill="none" color="black" stroke="currentColor" stroke-width="1.00" stroke-linecap="butt" stroke-linejoin="miter">
	<g transform="translate(450.3,467.9)" stroke="none" fill="black" font-family="Arial" font-size="12.00"  text-anchor="end">
		<text><tspan font-family="Arial" >score p10=2731008</tspan></text>
	</g>
</g>
<g fill="none" color="black" stroke="currentColor" stroke-width="1.00" stroke-linecap="butt" stroke-linejoin="miter">
	<path stroke='rgb( 86, 180, 233)'  d='M458.6,464.0 L500.8,464.0  '/></g>
	</g>
	<g id="gnuplot_plot_4" ><title>score median=4096000</title>
<g fill="none" color="black" stroke="currentColor" stroke-width="1.00" stroke-linecap="butt" stroke-linejoin="miter">
	<g transform="translate(450.3,485.9)" stroke="none" fill="black" font-family="Arial" font-size="12.00"  text-anchor="end">
		<text><tspan font-family="Arial" >score median=4096000</tspan></text>
	</g>
</g>
<g fill="none" color="black" stroke="currentColor" stroke-width="1.00" stroke-linecap="butt" stroke-linejoin="miter">
	<path stroke='rgb(230, 159,   0)'  d='M458.6,482.0 L500.8,482.0  '/></g>
	</g>
<g fill="none" color="#FFFFFF" stroke="rgb(230, 159,   0)" stroke-width="2.00" stroke-linecap="butt" stroke-linejoin="miter">
</g>
<g fill="none" color="black" stroke="currentColor" stroke-width="2.00" stroke-linecap="butt" stroke-linejoin="miter">
</g>
<g fill="none" color="black" stroke="black" stroke-width="1.00" stroke-linecap="butt" stroke-linejoin="miter">
</g>
<g fill="none" color="black" stroke="currentColor" stroke-width="1.00" stroke-linecap="butt" stroke-linejoin="miter">
	<path stroke='black'  d='M87.1,18.1 L87.1,392.0 L615.0,392.0 L615.0,18.1 L87.1,18.1 Z  '/></g>
<g fill="none" color="black" stroke="currentColor" stroke-width="1.00" stroke-linecap="butt" stroke-linejoin="miter">
</g>
</g>
</svg>
